app/img/icons/ic--wireless.svg

<svg xmlns="http://www.w3.org/2000/svg" preserveAspectRatio="xMidYMid" width="30" height="22" viewBox="0 0 30 22"><defs><style>.cls-1{fill:#fff;fill-rule:evenodd}</style></defs><path d="M10.927 16.762h.008a5.7 5.7 0 0 1 4.054-1.687c1.506 0 2.98.601 4.061 1.687a1.175 1.175 0 0 1 0 1.636l-.074.041-3.177 3.208a1.143 1.143 0 0 1-1.613.016l-.017-.016-.016-.017-3.226-3.24a1.18 1.18 0 0 1 0-1.628zm2.579.954l1.483 1.472 1.465-1.472a3.606 3.606 0 0 0-2.948 0zm-4.479-2.87a1.18 1.18 0 0 1-1.629 0 1.146 1.146 0 0 1 0-1.638 10.718 10.718 0 0 1 7.591-3.158c2.824 0 5.584 1.152 7.598 3.158a1.176 1.176 0 0 1 0 1.638 1.201 1.201 0 0 1-1.646 0 8.367 8.367 0 0 0-5.952-2.476 8.339 8.339 0 0 0-5.962 2.476zM5.49 11.292c-.45.437-1.18.437-1.637 0a1.156 1.156 0 0 1 0-1.636 15.76 15.76 0 0 1 11.136-4.639 15.78 15.78 0 0 1 11.136 4.639 1.157 1.157 0 0 1 0 1.62 1.172 1.172 0 0 1-1.638.016 13.4 13.4 0 0 0-9.498-3.955 13.353 13.353 0 0 0-9.499 3.955zM1.953 7.731a1.176 1.176 0 0 1-1.646-.008 1.14 1.14 0 0 1 .016-1.62A20.684 20.684 0 0 1 14.989-.008a20.73 20.73 0 0 1 14.673 6.111c.442.435.442 1.184 0 1.628a1.184 1.184 0 0 1-1.646 0C24.569 4.244 19.885 2.32 14.989 2.32c-4.914 0-9.573 1.924-13.036 5.411z" class="cls-1"/></svg>

<svg xmlns="http://www.w3.org/2000/svg" xmlns:xlink="http://www.w3.org/1999/xlink" preserveAspectRatio="xMidYMid" width="30" height="22" viewBox="0 0 30 22">
  <defs>
    <style>
      .cls-1 {
        fill: #fff;
        fill-rule: evenodd;
      }
    </style>
  </defs>
  <path d="M10.927,16.762 L10.935,16.762 C12.008,15.676 13.473,15.075 14.989,15.075 C16.495,15.075 17.969,15.676 19.050,16.762 C19.492,17.214 19.492,17.945 19.050,18.398 L18.976,18.439 L15.799,21.647 C15.365,22.099 14.620,22.099 14.186,21.663 L14.169,21.647 L14.153,21.630 L10.927,18.390 C10.493,17.945 10.493,17.214 10.927,16.762 L10.927,16.762 ZM13.506,17.716 L13.506,17.716 L14.989,19.188 L16.454,17.716 C15.513,17.304 14.473,17.288 13.506,17.716 L13.506,17.716 ZM9.027,14.846 L9.027,14.846 C8.577,15.281 7.848,15.281 7.398,14.846 C6.939,14.393 6.939,13.661 7.398,13.208 C9.404,11.185 12.155,10.050 14.989,10.050 C17.813,10.050 20.573,11.202 22.587,13.208 C23.030,13.661 23.030,14.393 22.587,14.846 C22.128,15.281 21.408,15.281 20.941,14.846 C19.361,13.250 17.216,12.370 14.989,12.370 C12.745,12.370 10.616,13.241 9.027,14.846 L9.027,14.846 ZM5.490,11.292 L5.490,11.292 C5.040,11.729 4.310,11.729 3.853,11.292 C3.401,10.840 3.401,10.100 3.853,9.656 C6.800,6.695 10.829,5.017 14.989,5.017 C19.140,5.017 23.176,6.695 26.125,9.656 C26.566,10.092 26.566,10.840 26.125,11.276 C25.666,11.729 24.946,11.729 24.487,11.292 C21.982,8.759 18.534,7.337 14.989,7.337 C11.418,7.337 8.012,8.751 5.490,11.292 L5.490,11.292 ZM1.953,7.731 L1.953,7.731 C1.486,8.175 0.774,8.175 0.307,7.723 C-0.135,7.287 -0.135,6.538 0.323,6.103 C4.204,2.196 9.486,-0.008 14.989,-0.008 C20.475,-0.008 25.781,2.196 29.662,6.103 C30.104,6.538 30.104,7.287 29.662,7.731 C29.195,8.175 28.483,8.175 28.016,7.731 C24.569,4.244 19.885,2.320 14.989,2.320 C10.075,2.320 5.416,4.244 1.953,7.731 L1.953,7.731 Z" class="cls-1"/>
</svg>
